dist/svg/minus-circle-o.svg

<!-- Generated by Trend Micro Style Portal -->
<svg version="1.1" xmlns="http://www.w3.org/2000/svg" width="16" height="16" viewBox="0 0 16 16">
  <title>minus-circle-o</title>
  <path fill="rgb(34,34,34)" d="M8 0c-4.4 0-8 3.6-8 8s3.6 8 8 8c4.4 0 8-3.6 8-8s-3.6-8-8-8zM8 14.5c-3.6 0-6.5-2.9-6.5-6.5s2.9-6.5 6.5-6.5 6.5 2.9 6.5 6.5-2.9 6.5-6.5 6.5zM4 7h8v2h-8v-2z"></path>
</svg>

<svg width="16" height="16" viewBox="0 0 16 16" fill="rgb(34, 34, 34)" xmlns="http://www.w3.org/2000/svg"><title>minus-circle-o</title><path d="M8 0C3.6 0 0 3.6 0 8C0 12.4 3.6 16 8 16C12.4 16 16 12.4 16 8C16 3.6 12.4 0 8 0ZM8 14.5C4.4 14.5 1.5 11.6 1.5 8C1.5 4.4 4.4 1.5 8 1.5C11.6 1.5 14.5 4.4 14.5 8C14.5 11.6 11.6 14.5 8 14.5ZM4 7H12V9H4V7Z" fill="rgb(34, 34, 34)" fill-opacity="1.00"/></svg>
